X: 30092
M: C
L: 1/16
K: Bb
V: 1 staves=2
g3ed3e f3BA3B | c4c3c c4F4 |\
g3ed3e c4A2f2 | B4B3B B4 :| \
|: d3e |\
f4d3f B4G3B | E4E3E E4e3f |\
g4=e3g c4A3c | F4F3F F4FGAF |
g3ed3e c4A3f | B4B3B B4d3e |\
fgfe dedc BcB_A GAGF | E4E3E E4=e3f |
gagf =efed cdcB ABAG | F4F3F F4 FGAF |\
g3ed3e c4a4 | b4b3b b4 :|
V: 2
e4c4 d4F3B | A4A3A A4F4 |\
e3cB3c A4F2E2 | D4D3D D4 :| \
|: B3c |\
d4B4 F4D4 | E4E3E E4c3d |\
e4c4 A4F4 | F4F3F F4z4 |\
e4c4 A4F3E | D4D3D D4B3c |\
d4B4 F4d4 | e2B2G2B2 E4c3d |\
=e4c4 G4e4 | f2c2A2c2 F4z4 |\
e3cB3c A4c4 | d4d3d d4 :|


